X: 1
T: The Orion Belt
R: reel
M: 4/4
L: 1/8
K: Gmaj
BAGA B3c|BAGA Bdd2|BAGA Bdef|gedB BAA2|
gedB G2GE|DEGA BAA2|BAGA Bdde|dBAB G3A:|
|:Bdef g2fg|a2ag fdde|f2dB BAFA|Adfd edBA|
Bdef g2fg|a2ag fdd2|BAGA Bdde|dBAB G4:|

composer: Vincent Broderick
